image/arrow-bottom.svg

<svg fill="none" height="7" viewBox="0 0 13 7" width="13" xmlns="http://www.w3.org/2000/svg"><path clip-rule="evenodd" d="m.146447.146447c.195262-.1952625.511844-.1952625.707106 0l5.646447 5.646443 5.6464-5.646441c.1953-.1952625.5119-.1952625.7072 0 .1952.195262.1952.511844 0 .707106l-6.00005 5.999995c-.19526.19527-.51184.19527-.7071 0l-6.000003-5.999997c-.1952625-.195262-.1952626-.511844 0-.707106z" fill="#1e1e1e" fill-rule="evenodd"/></svg>

<svg width="13" height="7" viewBox="0 0 13 7" fill="none" xmlns="http://www.w3.org/2000/svg">
<path fill-rule="evenodd" clip-rule="evenodd" d="M0.146447 0.146447C0.341709 -0.0488155 0.658291 -0.0488155 0.853553 0.146447L6.5 5.79289L12.1464 0.146449C12.3417 -0.0488135 12.6583 -0.0488135 12.8536 0.146449C13.0488 0.341711 13.0488 0.658293 12.8536 0.853555L6.85355 6.85355C6.65829 7.04882 6.34171 7.04882 6.14645 6.85355L0.146447 0.853553C-0.0488155 0.658291 -0.0488156 0.341709 0.146447 0.146447Z" fill="#1E1E1E"/>
</svg>
